X:3413
L:1/16
M:2/4
K:G
 gfga b2g2 | dedc{c} B2AG | G2G2 AGAB | c2B2B2A2 | gfga b2g2 | d2dc{c} B2AG | D2G2 Bedc | 
 B2G2 G4 :: B2AG c2c2 | B2AG A2D2 | g2g2 fafd | cgec d2D2 | BdBG c2c2 | BdBG A2D2 | g2g2 fafd | 
 egec d4!D.C.! :|

